X:1
T:Title
%%score { 1 | 2 }
L:1/8
M:2/2
K:E
V:1 treble nm="Grand Piano"
V:2 bass 
V:1
 z4 z2[Q:1/4=220] E2 | E4 E4 | D6 E2 | [DF]2 [DF]2 [CE]2 [DF]2 | G6 G2 | G4 G4 | [DF]6 G2 | %7
 A2 A2 G2 A2 | B6 B2 | [^Ec]6 [EB]2 | [FA]6 [=Gc]2 | [Fc]2 [DB]2 [EB]2 [FA]2 | G6 E2 | E4 e4 | %14
 e2 c2 A2 F2 | [EB]4 D4 |[M:3/4] E6 |] %17
V:2
 z4 z2 [E,G,B,]2 | [E,G,C]4 [E,G,B,]4 | [E,F,B,]6 [E,G,B,]2 | [B,,A,]2 [B,,A,]2 [B,,G,]2 [B,,B,]2 | %4
 [E,B,E]6 [E,B,E]2 | [E,B,E]4 [E,B,E]4 | [B,,B,]6 [E,B,E]2 | [F,B,D]2 [F,B,D]2 [^E,B,D]2 [F,B,D]2 | %8
 [G,B,E]6 [G,B,E]2 | [C,B,]6 [C,C]2 | [F,C]6 [E,C]2 | [D,F,]2 [B,,B,]2 [C,B,]2 [D,B,]2 | %12
 [E,B,E]6 [E,G,=D]2 | [A,=D]4 [A,C]4 | [F,A,E]2 [F,A,E]2 [F,CE]2 [F,A,E]2 | [B,,G,]4 [B,,A,B,]4 | %16
[M:3/4] [E,G,B,]6 |] %17

